documents/logo.svg

<?xml version="1.0" encoding="UTF-8" standalone="no"?>
<svg
   xmlns:dc="http://purl.org/dc/elements/1.1/"
   xmlns:cc="http://creativecommons.org/ns#"
   xmlns:rdf="http://www.w3.org/1999/02/22-rdf-syntax-ns#"
   xmlns:svg="http://www.w3.org/2000/svg"
   xmlns="http://www.w3.org/2000/svg"
   xmlns:sodipodi="http://sodipodi.sourceforge.net/DTD/sodipodi-0.dtd"
   xmlns:inkscape="http://www.inkscape.org/namespaces/inkscape"
   width="70"
   height="70"
   viewBox="0 0 70 70"
   version="1.1"
   id="svg4"
   sodipodi:docname="logo.svg"
   style="fill:none"
   inkscape:version="0.92.3 (2405546, 2018-03-11)">
  <metadata
     id="metadata10">
    <rdf:RDF>
      <cc:Work
         rdf:about="">
        <dc:format>image/svg+xml</dc:format>
        <dc:type
           rdf:resource="http://purl.org/dc/dcmitype/StillImage" />
        <dc:title></dc:title>
      </cc:Work>
    </rdf:RDF>
  </metadata>
  <defs
     id="defs8" />
  <sodipodi:namedview
     pagecolor="#ffffff"
     bordercolor="#666666"
     borderopacity="1"
     objecttolerance="10"
     gridtolerance="10"
     guidetolerance="10"
     inkscape:pageopacity="0"
     inkscape:pageshadow="2"
     inkscape:window-width="1600"
     inkscape:window-height="848"
     id="namedview6"
     showgrid="false"
     inkscape:zoom="3.3714286"
     inkscape:cx="159.12845"
     inkscape:cy="5.8562847"
     inkscape:window-x="0"
     inkscape:window-y="0"
     inkscape:window-maximized="1"
     inkscape:current-layer="svg4" />
  <path
     d="M 0,5 C 0,2.23858 2.23858,0 5,0 h 60 c 2.7614,0 5,2.23858 5,5 v 45 c 0,2.7614 -2.2386,5 -5,5 -2.7614,0 -5,-2.2386 -5,-5 V 10 H 10 V 50 C 10,52.7614 7.76143,55 5,55 2.23858,55 2.30628e-6,52.7614 2.18557e-6,50 Z m 23,29 c 0,2.7614 -2.2386,5 -5,5 -2.7614,0 -5,-2.2386 -5,-5 0,-2.7614 2.2386,-5 5,-5 2.7614,0 5,2.2386 5,5 z M 0,65 c 0,-2.7614 2.23858,-5 5,-5 h 60 c 2.7614,0 5,2.2386 5,5 0,2.7614 -2.2386,5 -5,5 H 5 C 2.23858,70 0,67.7614 0,65 Z M 26,35 V 20 c 0,-2.7614 2.2386,-5 5,-5 h 20 c 2.7614,0 5,2.2386 5,5 0,2.7614 -2.2386,5 -5,5 H 36 v 5 h 15 c 2.7614,0 5,2.2386 5,5 0,2.7614 -2.2386,5 -5,5 H 36 v 4 h 15 c 2.7614,0 5,2.2386 5,5 0,2.7614 -2.2386,5 -5,5 H 31 c -2.7614,0 -5,-2.2386 -5,-5 z"
     id="path2"
     inkscape:connector-curvature="0"
     style="clip-rule:evenodd;fill:#000000;fill-rule:evenodd" />
</svg>

<svg width="70" height="70" viewBox="0 0 70 70" fill="none" xmlns="http://www.w3.org/2000/svg">
<path fill-rule="evenodd" clip-rule="evenodd" d="M0 5C0 2.23858 2.23858 0 5 0H65C67.7614 0 70 2.23858 70 5V50C70 52.7614 67.7614 55 65 55C62.2386 55 60 52.7614 60 50V10H10L10 50C10 52.7614 7.76143 55 5 55C2.23858 55 2.30628e-06 52.7614 2.18557e-06 50L0 5ZM23 34C23 36.7614 20.7614 39 18 39C15.2386 39 13 36.7614 13 34C13 31.2386 15.2386 29 18 29C20.7614 29 23 31.2386 23 34ZM0 65C0 62.2386 2.23858 60 5 60H65C67.7614 60 70 62.2386 70 65C70 67.7614 67.7614 70 65 70H5C2.23858 70 0 67.7614 0 65ZM26 35V20C26 17.2386 28.2386 15 31 15H51C53.7614 15 56 17.2386 56 20C56 22.7614 53.7614 25 51 25H36V30H51C53.7614 30 56 32.2386 56 35C56 37.7614 53.7614 40 51 40H36V44H51C53.7614 44 56 46.2386 56 49C56 51.7614 53.7614 54 51 54H31C28.2386 54 26 51.7614 26 49V35Z" fill="#C4C4C4"/>
</svg>
